X:1
T:Evening Hymn
T:Evening Hymn
T:Lucy Jane Rider Meyer
T:Emily Huntington Miller, 1878
T:Public Domain Courtesy of the Cyber Hymnal™
T:Public Domain Courtesy of the Cyber Hymnal™
C:Lucy Jane Rider Meyer
Z:Public Domain
Z:Courtesy of the Cyber Hymnal™
%%score ( 1 2 ) ( 3 4 )
L:1/8
Q:1/4=130
M:3/4
K:Db
V:1 treble 
V:2 treble 
V:3 bass 
V:4 bass 
V:1
 [DA]4 [FA]2 | [=EB]4 [EB]2 | (A2 d2 [DF]2) | [FA]6 | [EG]4 [=DF]2 | ([EG]2 [GB]2) [FA]2 | [DF]6 | %7
w: 1.~Mel- low|chimes are|steal- * *|ing|On the|twi- * light|air,|
w: 2.~In His|sac- red|keep- * *|ing|All His|child- * ren|dwell;|
 [DF]4 [FA]2 | [=E=G]4 [EG]2 | [FA]6 | [DF]6 | [CE]4 [=B,=D]2 | (E2 G2) [CF]2 | D6 | [EA]4 [Ac]2 | %15
w: Faint and|faint- er|peal-|ing,|Call the|heart * to|prayer;|Come a-|
w: Wak- ing|or in|sleep-|ing,|He shall|guard * them|well;|In His|
 [Ae]4 [Gc]2 | ([Fd]2 [Ge]2) [Af]2 | [FA]6 | [CG]4 [EG]2 | [CG]4 [EG]2 | (F2 G2) [DA]2 | [Fd]6 | %22
w: way! thy|day * is|done,|Leave thy|toil till|morn- * ing|sun;|
w: mer- cy|trust- * ing|still,|He shall|all thy|hopes * ful-|fill;|
 ([Af]3 [Ge]) [Fd]2 | ([Bd]3 [Ac]) [GB]2 | [FA]4 [DF]2 | [FA]4 [Fd]2 | (A3 G) [DF]2 | %27
w: Leave * to|God * thy|cares and|sor- rows,|In * His|
w: Heart, * be|glad! * for|He hath|spo- ken,|Ne- * ver|
 (B3 A) [DG]2 | [DF]4 D2 | [DF]4 [FA]2 | [Ge]4 [F=d]2 | ([Ge]2 [Af]2) [Ge]2 | ([F-d]6 | [FA]6) | %34
w: hand * He|holds thy|mor- rows,|Holds them,|ev- * ery|one,||
w: can * His|word be|bro- ken,|Rest and|fear * no|ill,||
 [EG]4 [=DF]2 | ([EG]2 [FA]2) [EG]2 | [DF]6 |] %37
w: Holds them,|ev- * ery|one.|
w: Rest and|fear * no|ill.|
V:2
 x6 | x6 | F4 x2 | x6 | x6 | x6 | x6 | x6 | x6 | x6 | x6 | x6 | C4 x2 | D6 | x6 | x6 | x6 | x6 | %18
 x6 | x6 | D4 x2 | x6 | x6 | x6 | x6 | x6 | D4 x2 | D4 x2 | x4 D2 | x6 | x6 | x6 | x6 | x6 | x6 | %35
 x6 | x6 |] %37
V:3
 [D,F,]4 [D,A,]2 | [D,=G,]4 [D,G,]2 | [D,A,]6 | [D,A,]6 | [A,,C]4 [A,,C]2 | [A,,C]4 [A,,C]2 | %6
 [D,D]6 | [D,A,]4 [D,A,]2 | [D,B,]4 [D,B,]2 | (A,2 D2 F,2) | [D,A,]6 | [A,,G,]4 [A,,F,]2 | %12
 (G,2 B,2) [A,,A,]2 | [D,F,]6 | [A,C]4 [A,E]2 | [A,C]4 [A,E]2 | [D,D]4 [D,A,]2 | (D4 A,2) | %18
 [A,,A,]4 [A,,C]2 | [A,,E]4 [A,,C]2 | (D2 E2) [D,F]2 | [D,A,]6 | [D,A,]4 [D,D]2 | [G,D]4 [G,D]2 | %24
 [D,D]4 [D,A,]2 | [D,D]4 [D,A,]2 | (F3 E) [D,D]2 | (D3 C) [G,B,]2 | [D,A,]4 [D,F,]2 | %29
 [D,A,]4 [D,D]2 | [A,C]4 [A,C]2 | [A,C]4 [A,C]2 | [D,D]6- | [D,D]6 | [A,,C]4 [A,,A,]2 | %35
 [A,,A,]4 [A,,A,]2 | [D,A,]6 |] %37
V:4
 x6 | x6 | x6 | x6 | x6 | x6 | x6 | x6 | x6 | D,6 | x6 | x6 | A,,4 x2 | x6 | x6 | x6 | x6 | D,6 | %18
 x6 | x6 | D,4 x2 | x6 | x6 | x6 | x6 | x6 | D,4 x2 | G,4 x2 | x6 | x6 | x6 | x6 | x6 | x6 | x6 | %35
 x6 | x6 |] %37

